common/src/main/resources/icons/codeWithMe/cwmInvite.svg

<svg xmlns="http://www.w3.org/2000/svg" width="16" height="16" data-big="true" viewBox="0 0 24 24"><path fill="#FF8A65" d="M16.75 4.36c2.02 2.2 2.02 5.25 0 7.27l-1.68-1.69c.84-1.18.84-2.71 0-3.89zM20.06 1c3.94 4.05 3.9 10.11 0 14l-1.63-1.63c2.77-3.18 2.77-7.72 0-10.74zM9 4c2.2 0 4 1.79 4 4s-1.8 4-4 4-4-1.79-4-4 1.79-4 4-4m4 10.54c0 1.06-.29 3.53-2.2 6.29L10 16l.93-1.88C10.31 14.05 9.66 14 9 14s-1.33.05-1.95.12L8 16l-.82 4.83C5.27 18.07 5 15.6 5 14.54 2.6 15.24.994 16.5.994 18v4H17v-4c0-1.5-1.61-2.76-4-3.46"/></svg>

<!--
  - The MIT License (MIT)
  -
  - Copyright (c) 2015-2024 Elior "Mallowigi" Boukhobza
  -
  - Permission is hereby granted, free of charge, to any person obtaining a copy
  - of this software and associated documentation files (the "Software"), to deal
  - in the Software without restriction, including without limitation the rights
  - to use, copy, modify, merge, publish, distribute, sublicense, and/or sell
  - copies of the Software, and to permit persons to whom the Software is
  - furnished to do so, subject to the following conditions:
  -
  - The above copyright notice and this permission notice shall be included in all
  - copies or substantial portions of the Software.
  -
  - THE SOFTWARE IS PROVIDED "AS IS", WITHOUT WARRANTY OF ANY KIND, EXPRESS OR
  - IMPLIED, INCLUDING BUT NOT LIMITED TO THE WARRANTIES OF MERCHANTABILITY,
  - FITNESS FOR A PARTICULAR PURPOSE AND NONINFRINGEMENT. IN NO EVENT SHALL THE
  - AUTHORS OR COPYRIGHT HOLDERS BE LIABLE FOR ANY CLAIM, DAMAGES OR OTHER
  - LIABILITY, WHETHER IN AN ACTION OF CONTRACT, TORT OR OTHERWISE, ARISING FROM,
  - OUT OF OR IN CONNECTION WITH THE SOFTWARE OR THE USE OR OTHER DEALINGS IN THE
  - SOFTWARE.
  -->


<svg data-big="true" xmlns="http://www.w3.org/2000/svg" version="1.1" width="16px" height="16px" viewBox="0 0 24 24">
  <path fill="#FF8A65"
        d="M16.75 4.36C18.77 6.56 18.77 9.61 16.75 11.63L15.07 9.94C15.91 8.76 15.91 7.23 15.07 6.05L16.75 4.36M20.06 1C24 5.05 23.96 11.11 20.06 15L18.43 13.37C21.2 10.19 21.2 5.65 18.43 2.63L20.06 1M9 4C11.2 4 13 5.79 13 8S11.2 12 9 12 5 10.21 5 8 6.79 4 9 4M13 14.54C13 15.6 12.71 18.07 10.8 20.83L10 16L10.93 14.12C10.31 14.05 9.66 14 9 14S7.67 14.05 7.05 14.12L8 16L7.18 20.83C5.27 18.07 5 15.6 5 14.54C2.6 15.24 .994 16.5 .994 18V22H17V18C17 16.5 15.39 15.24 13 14.54Z"/>
</svg>
